Origami/64x64/apps/vbam.svg

<svg width="64" height="64" version="1" xmlns="http://www.w3.org/2000/svg">
 <path d="m23.805664 15c-2.920838 0-5.52793 0.1616-7.321289 2h-5.484375c-4.986 0-9 4.413386-9 9.399386v13.201228c0 4.986 4.014 9.399386 9 9.399386h5.484375c1.793359 1.838356 4.400451 2 7.321289 2h16.388672c2.920838 0 5.52793-0.1616 7.321288-2h5.484376c4.986 0 9-4.413386 9-9.399386v-13.201228c0-4.986-4.014-9.399386-9-9.399386h-5.484376c-1.793358-1.838355-4.40045-2-7.321288-2z" style="opacity:.2"/>
 <path d="m23.805664 14c-2.920838 0-5.52793 0.1616-7.321289 2h-5.484375c-4.986 0-9 4.413386-9 9.399386v13.201228c0 4.986 4.014 9.399386 9 9.399386h5.484375c1.793359 1.838356 4.400451 2 7.321289 2h16.388672c2.920838 0 5.52793-0.1616 7.321288-2h5.484376c4.986 0 9-4.413386 9-9.399386v-13.201228c0-4.986-4.014-9.399386-9-9.399386h-5.484376c-1.793358-1.838355-4.40045-2-7.321288-2z" style="fill:#7f4fc8"/>
 <circle cx="57" cy="30" r="3" style="opacity:.2"/>
 <circle cx="57" cy="29" r="3" style="fill:#ffffff"/>
 <circle transform="rotate(90)" cx="34" cy="-49" r="3" style="opacity:.2"/>
 <circle transform="rotate(90)" cx="33" cy="-49" r="3" style="fill:#ffffff"/>
 <rect x="20" y="20" width="24" height="24" style="fill:#7b92ed"/>
 <circle transform="rotate(90)" cx="21.5" cy="-53.5" r="1.5" style="opacity:.2"/>
 <circle transform="rotate(90)" cx="20.5" cy="-53.5" r="1.5" style="fill:#52ff41"/>
 <path d="m10 25c-1.108 0-2 0.892-2 2v2h-2c-1.108 0-2 0.892-2 2v2c0 1.108 0.892 2 2 2h2v2c0 1.108 0.892 2 2 2h2c1.108 0 2-0.892 2-2v-2h2c1.108 0 2-0.892 2-2v-2c0-1.108-0.892-2-2-2h-2v-2c0-1.108-0.892-2-2-2h-2z" style="opacity:.2"/>
 <path d="m10 24c-1.108 0-2 0.892-2 2v2h-2c-1.108 0-2 0.892-2 2v2c0 1.108 0.892 2 2 2h2v2c0 1.108 0.892 2 2 2h2c1.108 0 2-0.892 2-2v-2h2c1.108 0 2-0.892 2-2v-2c0-1.108-0.892-2-2-2h-2v-2c0-1.108-0.892-2-2-2h-2z" style="fill:#ffffff"/>
 <path d="m23.804688 14c-2.920838 0-5.526954 0.1616-7.320313 2h-5.484375c-4.986 0-9 4.412437-9 9.398438v1c0-4.986001 4.014-9.398438 9-9.398438h5.484375c1.793359-1.8384 4.399475-2 7.320313-2h16.390624c2.920838 0 5.526955 0.161645 7.320313 2h5.484375c4.986 0 9 4.412437 9 9.398438v-1c0-4.986001-4.014-9.398438-9-9.398438h-5.484375c-1.793358-1.838355-4.399475-2-7.320313-2h-16.390624z" style="fill:#ffffff;opacity:.1"/>
</svg>

<svg xmlns="http://www.w3.org/2000/svg" width="64" height="64" version="1">
 <path style="opacity:0.2" d="m 23.805664,15 c -2.920838,0 -5.52793,0.1616 -7.321289,2 L 11,17 C 6.014,17 2,21.413386 2,26.399386 L 2,39.600614 C 2,44.586614 6.014,49 11,49 l 5.484375,0 c 1.793359,1.838356 4.400451,2 7.321289,2 l 16.388672,0 c 2.920838,0 5.52793,-0.1616 7.321288,-2 L 53,49 c 4.986,0 9,-4.413386 9,-9.399386 L 62,26.399386 C 62,21.413386 57.986,17 53,17 l -5.484376,0 c -1.793358,-1.838355 -4.40045,-2 -7.321288,-2 z"/>
 <path style="fill:#7f4fc8" d="m 23.805664,14 c -2.920838,0 -5.52793,0.1616 -7.321289,2 L 11,16 C 6.014,16 2,20.413386 2,25.399386 L 2,38.600614 C 2,43.586614 6.014,48 11,48 l 5.484375,0 c 1.793359,1.838356 4.400451,2 7.321289,2 l 16.388672,0 c 2.920838,0 5.52793,-0.1616 7.321288,-2 L 53,48 c 4.986,0 9,-4.413386 9,-9.399386 L 62,25.399386 C 62,20.413386 57.986,16 53,16 l -5.484376,0 c -1.793358,-1.838355 -4.40045,-2 -7.321288,-2 z"/>
 <circle style="opacity:0.2" cx="57" cy="30" r="3"/>
 <circle style="fill:#ffffff" cx="57" cy="29" r="3"/>
 <circle style="opacity:0.2" cx="34" cy="-49" r="3" transform="matrix(0,1,-1,0,0,0)"/>
 <circle style="fill:#ffffff" cx="33" cy="-49" r="3" transform="matrix(0,1,-1,0,0,0)"/>
 <rect style="fill:#7b92ed" width="24" height="24" x="20" y="20"/>
 <circle style="opacity:0.2" cx="21.5" cy="-53.5" r="1.5" transform="matrix(0,1,-1,0,0,0)"/>
 <circle style="fill:#52ff41" cx="20.5" cy="-53.5" r="1.5" transform="matrix(0,1,-1,0,0,0)"/>
 <path style="opacity:0.2" d="m 10,25 c -1.108,0 -2,0.892 -2,2 l 0,2 -2,0 c -1.108,0 -2,0.892 -2,2 l 0,2 c 0,1.108 0.892,2 2,2 l 2,0 0,2 c 0,1.108 0.892,2 2,2 l 2,0 c 1.108,0 2,-0.892 2,-2 l 0,-2 2,0 c 1.108,0 2,-0.892 2,-2 l 0,-2 c 0,-1.108 -0.892,-2 -2,-2 l -2,0 0,-2 c 0,-1.108 -0.892,-2 -2,-2 l -2,0 z"/>
 <path style="fill:#ffffff" d="m 10,24 c -1.108,0 -2,0.892 -2,2 l 0,2 -2,0 c -1.108,0 -2,0.892 -2,2 l 0,2 c 0,1.108 0.892,2 2,2 l 2,0 0,2 c 0,1.108 0.892,2 2,2 l 2,0 c 1.108,0 2,-0.892 2,-2 l 0,-2 2,0 c 1.108,0 2,-0.892 2,-2 l 0,-2 c 0,-1.108 -0.892,-2 -2,-2 l -2,0 0,-2 c 0,-1.108 -0.892,-2 -2,-2 l -2,0 z"/>
 <path style="fill:#ffffff;opacity:0.1" d="M 23.804688 14 C 20.88385 14 18.277734 14.1616 16.484375 16 L 11 16 C 6.014 16 2 20.412437 2 25.398438 L 2 26.398438 C 2 21.412437 6.014 17 11 17 L 16.484375 17 C 18.277734 15.1616 20.88385 15 23.804688 15 L 40.195312 15 C 43.11615 15 45.722267 15.161645 47.515625 17 L 53 17 C 57.986 17 62 21.412437 62 26.398438 L 62 25.398438 C 62 20.412437 57.986 16 53 16 L 47.515625 16 C 45.722267 14.161645 43.11615 14 40.195312 14 L 23.804688 14 z"/>
</svg>
